assets/images/bootstrap.svg

<svg width="117" height="30" viewBox="0 0 117 30" fill="none" xmlns="http://www.w3.org/2000/svg">
<path d="M36.2744 22C36.2744 22 36.2744 17.5674 36.2744 8.70215C36.2744 8.70215 37.1885 8.70215 39.0166 8.70215C40.0303 8.70215 40.792 8.75195 41.3018 8.85156C41.8174 8.94531 42.2773 9.12695 42.6816 9.39648C43.1387 9.70703 43.4932 10.1113 43.7451 10.6094C43.9971 11.1016 44.123 11.6465 44.123 12.2441C44.123 12.8711 44.0088 13.3779 43.7803 13.7646C43.5576 14.1455 43.1797 14.4736 42.6465 14.749C43.0918 14.9307 43.4316 15.1035 43.666 15.2676C43.9062 15.4316 44.1201 15.6426 44.3076 15.9004C44.7119 16.4512 44.9141 17.1631 44.9141 18.0361C44.9141 18.7393 44.7559 19.3779 44.4395 19.9521C44.123 20.5264 43.6777 20.9805 43.1035 21.3145C42.3125 21.7715 41.2197 22 39.8252 22H36.2744ZM38.7441 19.6445H39.9658C40.8271 19.6445 41.4541 19.5127 41.8467 19.249C42.2393 18.9795 42.4355 18.5518 42.4355 17.9658C42.4355 17.3799 42.2275 16.9463 41.8115 16.665C41.4014 16.3838 40.7686 16.2432 39.9131 16.2432H38.7441V19.6445ZM38.7441 13.8262H39.5352C40.2852 13.8262 40.8271 13.7207 41.1611 13.5098C41.4951 13.293 41.6621 12.9443 41.6621 12.4639C41.6621 11.5615 41.0264 11.1104 39.7549 11.1104H38.7441V13.8262ZM51.418 11.7959C52.3672 11.7959 53.2461 12.0303 54.0547 12.499C54.8633 12.9678 55.502 13.6064 55.9707 14.415C56.4395 15.2178 56.6738 16.0908 56.6738 17.0342C56.6738 17.9717 56.4365 18.8418 55.9619 19.6445C55.4932 20.4414 54.8516 21.0742 54.0371 21.543C53.2227 22.0059 52.3379 22.2373 51.3828 22.2373C50.4219 22.2373 49.5312 22.0059 48.7109 21.543C47.8965 21.0742 47.252 20.4414 46.7773 19.6445C46.3027 18.8418 46.0654 17.9717 46.0654 17.0342C46.0654 16.3193 46.2031 15.6396 46.4785 14.9951C46.7598 14.3447 47.1377 13.7881 47.6123 13.3252C48.0928 12.8564 48.6641 12.4844 49.3262 12.209C49.9883 11.9336 50.6855 11.7959 51.418 11.7959ZM51.3213 13.9932C50.5479 13.9932 49.8799 14.292 49.3174 14.8896C48.7607 15.4814 48.4824 16.1904 48.4824 17.0166C48.4824 17.8486 48.7637 18.5605 49.3262 19.1523C49.8887 19.7441 50.5654 20.04 51.3564 20.04C52.1533 20.04 52.8359 19.7471 53.4043 19.1611C53.9727 18.5693 54.2568 17.8604 54.2568 17.0342C54.2568 16.1787 53.9727 15.458 53.4043 14.8721C52.8359 14.2861 52.1416 13.9932 51.3213 13.9932ZM63.0195 11.7959C63.9688 11.7959 64.8477 12.0303 65.6562 12.499C66.4648 12.9678 67.1035 13.6064 67.5723 14.415C68.041 15.2178 68.2754 16.0908 68.2754 17.0342C68.2754 17.9717 68.0381 18.8418 67.5635 19.6445C67.0947 20.4414 66.4531 21.0742 65.6387 21.543C64.8242 22.0059 63.9395 22.2373 62.9844 22.2373C62.0234 22.2373 61.1328 22.0059 60.3125 21.543C59.498 21.0742 58.8535 20.4414 58.3789 19.6445C57.9043 18.8418 57.667 17.9717 57.667 17.0342C57.667 16.3193 57.8047 15.6396 58.0801 14.9951C58.3613 14.3447 58.7393 13.7881 59.2139 13.3252C59.6943 12.8564 60.2656 12.4844 60.9277 12.209C61.5898 11.9336 62.2871 11.7959 63.0195 11.7959ZM62.9229 13.9932C62.1494 13.9932 61.4814 14.292 60.9189 14.8896C60.3623 15.4814 60.084 16.1904 60.084 17.0166C60.084 17.8486 60.3652 18.5605 60.9277 19.1523C61.4902 19.7441 62.167 20.04 62.958 20.04C63.7549 20.04 64.4375 19.7471 65.0059 19.1611C65.5742 18.5693 65.8584 17.8604 65.8584 17.0342C65.8584 16.1787 65.5742 15.458 65.0059 14.8721C64.4375 14.2861 63.7432 13.9932 62.9229 13.9932ZM70.0156 22C70.0156 22 70.0156 19.4014 70.0156 14.2041C70.0156 14.2041 69.626 14.2041 68.8467 14.2041C68.8467 14.2041 68.8467 13.4775 68.8467 12.0244C68.8467 12.0244 69.2363 12.0244 70.0156 12.0244C70.0156 12.0244 70.0156 10.917 70.0156 8.70215C70.0156 8.70215 70.8125 8.70215 72.4062 8.70215C72.4062 8.70215 72.4062 9.80957 72.4062 12.0244C72.4062 12.0244 72.8867 12.0244 73.8477 12.0244C73.8477 12.0244 73.8477 12.751 73.8477 14.2041C73.8477 14.2041 73.3672 14.2041 72.4062 14.2041C72.4062 14.2041 72.4062 16.8027 72.4062 22C72.4062 22 71.6094 22 70.0156 22ZM74.3311 18.8359C74.3311 18.8359 75.1338 18.8359 76.7393 18.8359C76.8564 19.2578 77.0205 19.5654 77.2314 19.7588C77.4424 19.9463 77.7236 20.04 78.0752 20.04C78.3916 20.04 78.6494 19.9492 78.8486 19.7676C79.0537 19.5801 79.1562 19.3457 79.1562 19.0645C79.1562 18.7363 79.0039 18.4785 78.6992 18.291C78.5703 18.2148 78.4443 18.1504 78.3213 18.0977C78.1982 18.0449 77.9111 17.9424 77.46 17.79C76.4639 17.4561 75.752 17.0635 75.3242 16.6123C74.9023 16.1611 74.6914 15.5693 74.6914 14.8369C74.6914 13.9814 75.0078 13.2607 75.6406 12.6748C76.2793 12.0889 77.0674 11.7959 78.0049 11.7959C78.5205 11.7959 79.0068 11.8984 79.4639 12.1035C79.9268 12.3086 80.3164 12.5957 80.6328 12.9648C80.8496 13.2227 81.0049 13.4893 81.0986 13.7646C81.1982 14.04 81.2568 14.3799 81.2744 14.7842H78.9365C78.8311 14.2568 78.5205 13.9932 78.0049 13.9932C77.7471 13.9932 77.5273 14.0752 77.3457 14.2393C77.1699 14.3975 77.082 14.5967 77.082 14.8369C77.082 15.1416 77.2373 15.3643 77.5479 15.5049C77.7178 15.5752 78.1279 15.7129 78.7783 15.918C79.7861 16.2285 80.498 16.6035 80.9141 17.043C81.3359 17.4824 81.5469 18.0801 81.5469 18.8359C81.5469 19.791 81.2012 20.5967 80.5098 21.2529C79.8184 21.9092 78.9746 22.2373 77.9785 22.2373C77.3633 22.2373 76.7832 22.1084 76.2383 21.8506C75.6992 21.5869 75.2715 21.2354 74.9551 20.7959C74.7676 20.5264 74.627 20.248 74.5332 19.9609C74.4395 19.6738 74.3721 19.2988 74.3311 18.8359ZM83.3574 22C83.3574 22 83.3574 19.4014 83.3574 14.2041C83.3574 14.2041 82.9678 14.2041 82.1885 14.2041C82.1885 14.2041 82.1885 13.4775 82.1885 12.0244C82.1885 12.0244 82.5781 12.0244 83.3574 12.0244C83.3574 12.0244 83.3574 10.917 83.3574 8.70215C83.3574 8.70215 84.1543 8.70215 85.748 8.70215C85.748 8.70215 85.748 9.80957 85.748 12.0244C85.748 12.0244 86.2285 12.0244 87.1895 12.0244C87.1895 12.0244 87.1895 12.751 87.1895 14.2041C87.1895 14.2041 86.709 14.2041 85.748 14.2041C85.748 14.2041 85.748 16.8027 85.748 22C85.748 22 84.9512 22 83.3574 22ZM88.376 22C88.376 22 88.376 18.6748 88.376 12.0244C88.376 12.0244 89.1055 12.0244 90.5645 12.0244C90.5645 12.0244 90.5645 12.3496 90.5645 13C90.8809 12.5371 91.1914 12.2207 91.4961 12.0508C91.8008 11.8809 92.2109 11.7959 92.7266 11.7959H92.9111C92.9111 11.7959 92.9111 12.5635 92.9111 14.0986C91.4814 14.1338 90.7666 14.9189 90.7666 16.4541C90.7666 16.4541 90.7666 18.3027 90.7666 22C90.7666 22 89.9697 22 88.376 22ZM103.968 12.0244C103.968 12.0244 103.968 15.3496 103.968 22C103.968 22 103.238 22 101.779 22C101.779 22 101.779 21.5693 101.779 20.708C101.299 21.2529 100.801 21.6455 100.285 21.8857C99.7754 22.1201 99.1689 22.2373 98.4658 22.2373C97.5049 22.2373 96.6406 22.0176 95.873 21.5781C95.1113 21.1328 94.5137 20.5146 94.0801 19.7236C93.6523 18.9326 93.4385 18.042 93.4385 17.0518C93.4385 16.0498 93.6553 15.1504 94.0889 14.3535C94.5225 13.5508 95.126 12.9238 95.8994 12.4727C96.6729 12.0215 97.5459 11.7959 98.5186 11.7959C99.2393 11.7959 99.8604 11.9219 100.382 12.1738C100.903 12.4199 101.369 12.8154 101.779 13.3604V12.0244H103.968ZM98.7295 13.9932C97.8975 13.9932 97.209 14.2861 96.6641 14.8721C96.125 15.458 95.8555 16.2021 95.8555 17.1045C95.8555 17.9775 96.1279 18.6865 96.6729 19.2314C97.2236 19.7705 97.9355 20.04 98.8086 20.04C99.6758 20.04 100.373 19.7646 100.9 19.2139C101.434 18.6631 101.7 17.9424 101.7 17.0518C101.7 16.1494 101.422 15.4141 100.865 14.8457C100.314 14.2773 99.6025 13.9932 98.7295 13.9932ZM105.919 25.3311C105.919 25.3311 105.919 20.8955 105.919 12.0244C105.919 12.0244 106.648 12.0244 108.107 12.0244C108.107 12.0244 108.107 12.417 108.107 13.2021C108.898 12.2646 109.991 11.7959 111.386 11.7959C112.335 11.7959 113.188 12.0186 113.943 12.4639C114.699 12.9033 115.288 13.5186 115.71 14.3096C116.138 15.1006 116.352 15.9912 116.352 16.9814C116.352 17.9775 116.138 18.877 115.71 19.6797C115.282 20.4766 114.688 21.1035 113.926 21.5605C113.17 22.0117 112.317 22.2373 111.368 22.2373C110.759 22.2373 110.211 22.1436 109.725 21.9561C109.238 21.7686 108.767 21.4727 108.31 21.0684V25.3311H105.919ZM111.025 13.9932C110.217 13.9932 109.537 14.2861 108.986 14.8721C108.441 15.4521 108.169 16.1787 108.169 17.0518C108.169 17.9014 108.45 18.6133 109.013 19.1875C109.575 19.7559 110.27 20.04 111.096 20.04C111.898 20.04 112.572 19.7529 113.117 19.1787C113.668 18.5986 113.943 17.8838 113.943 17.0342C113.943 16.1553 113.668 15.4287 113.117 14.8545C112.566 14.2803 111.869 13.9932 111.025 13.9932Z" fill="#111111"/>
<path d="M0 26.1318C0 28.2683 1.73191 30 3.86824 30H26.1316C28.2683 30 30 28.2681 30 26.1318V3.86836C30 1.73168 28.2681 0 26.1318 0H3.86836C1.73168 0 0 1.73191 0 3.86824V26.1318Z" fill="#563D7C"/>
<path d="M12.4404 13.2701V9.02168H16.18C16.5362 9.02168 16.8796 9.05133 17.2103 9.11074C17.541 9.17004 17.8336 9.27598 18.088 9.42867C18.3423 9.58137 18.5459 9.79336 18.6986 10.0646C18.8511 10.3361 18.9275 10.6838 18.9275 11.1076C18.9275 11.8709 18.6986 12.4221 18.2406 12.7613C17.7827 13.1005 17.1976 13.2701 16.4852 13.2701H12.4404ZM8.44629 5.91797V24.082H17.2485C18.0626 24.082 18.8555 23.9803 19.6271 23.7768C20.3988 23.5732 21.0857 23.2595 21.6878 22.8355C22.2898 22.4115 22.7689 21.8645 23.1251 21.1946C23.4813 20.5247 23.6593 19.7318 23.6593 18.816C23.6593 17.6796 23.3837 16.7087 22.8326 15.9032C22.2813 15.0975 21.446 14.5336 20.3266 14.2113C21.1407 13.8213 21.7556 13.3209 22.1712 12.7104C22.5866 12.0998 22.7944 11.3367 22.7944 10.4208C22.7944 9.57281 22.6545 8.86055 22.3746 8.28387C22.0948 7.70731 21.7004 7.24512 21.1916 6.89742C20.6829 6.54973 20.0723 6.29953 19.36 6.14695C18.6477 5.99426 17.859 5.91797 16.9941 5.91797H8.44629ZM12.4404 20.9783V15.9921H16.7905C17.6555 15.9921 18.3509 16.1913 18.8767 16.59C19.4024 16.9886 19.6654 17.6542 19.6654 18.587C19.6654 19.062 19.5847 19.452 19.4236 19.7572C19.2625 20.0625 19.0463 20.3043 18.7748 20.4823C18.5036 20.6604 18.1897 20.7875 17.8336 20.8639C17.4773 20.9401 17.1043 20.9783 16.7142 20.9783H12.4404Z" fill="white"/>
</svg>

<svg width="117" height="30" fill="none" xmlns="http://www.w3.org/2000/svg"><path d="M36.274 22V8.702h2.743c1.013 0 1.775.05 2.285.15.515.093.975.275 1.38.544.457.311.811.715 1.063 1.213.252.493.378 1.037.378 1.635 0 .627-.114 1.134-.343 1.52-.222.382-.6.71-1.133.985.445.182.785.354 1.019.519.24.164.454.375.642.632.404.551.606 1.263.606 2.136 0 .703-.158 1.342-.474 1.916a3.512 3.512 0 0 1-1.337 1.362c-.79.457-1.883.686-3.278.686h-3.55Zm2.47-2.355h1.222c.861 0 1.488-.132 1.88-.396.393-.27.59-.697.59-1.283s-.209-1.02-.624-1.301c-.41-.281-1.043-.422-1.899-.422h-1.169v3.402Zm0-5.819h.791c.75 0 1.292-.105 1.626-.316.334-.217.501-.566.501-1.046 0-.902-.636-1.354-1.907-1.354h-1.01v2.716Zm12.674-2.03c.95 0 1.828.234 2.637.703a5.182 5.182 0 0 1 1.916 1.916c.469.803.703 1.676.703 2.62 0 .937-.237 1.807-.712 2.61a5.203 5.203 0 0 1-1.925 1.898 5.28 5.28 0 0 1-2.654.694c-.961 0-1.852-.231-2.672-.694a5.273 5.273 0 0 1-1.934-1.898 5.039 5.039 0 0 1-.712-2.61c0-.716.138-1.395.413-2.04.282-.65.66-1.207 1.134-1.67a5.387 5.387 0 0 1 1.714-1.116 5.392 5.392 0 0 1 2.092-.413Zm-.097 2.197c-.773 0-1.441.299-2.004.897a2.995 2.995 0 0 0-.835 2.127c0 .832.282 1.544.844 2.135.563.592 1.24.888 2.03.888.797 0 1.48-.293 2.048-.879.569-.592.853-1.3.853-2.127 0-.855-.284-1.576-.853-2.162a2.79 2.79 0 0 0-2.083-.879Zm11.699-2.197c.949 0 1.828.234 2.636.703a5.183 5.183 0 0 1 1.916 1.916c.469.803.703 1.676.703 2.62 0 .937-.237 1.807-.712 2.61a5.205 5.205 0 0 1-1.924 1.898 5.28 5.28 0 0 1-2.655.694 5.346 5.346 0 0 1-2.672-.694 5.272 5.272 0 0 1-1.933-1.898 5.039 5.039 0 0 1-.712-2.61c0-.716.138-1.395.413-2.04.281-.65.66-1.207 1.134-1.67a5.385 5.385 0 0 1 1.714-1.116 5.393 5.393 0 0 1 2.092-.413Zm-.097 2.197c-.774 0-1.442.299-2.004.897a2.996 2.996 0 0 0-.835 2.127c0 .832.281 1.544.844 2.135.562.592 1.239.888 2.03.888.797 0 1.48-.293 2.048-.879.568-.592.852-1.3.852-2.127 0-.855-.284-1.576-.852-2.162a2.79 2.79 0 0 0-2.083-.879ZM70.016 22v-7.796h-1.17v-2.18h1.17V8.702h2.39v3.322h1.442v2.18h-1.442V22h-2.39Zm4.315-3.164h2.408c.117.422.281.73.492.923.211.187.493.281.844.281.317 0 .574-.09.774-.272a.913.913 0 0 0 .307-.704c0-.328-.152-.585-.457-.773a3.294 3.294 0 0 0-.378-.193 15.52 15.52 0 0 0-.861-.308c-.996-.334-1.708-.726-2.136-1.178-.422-.45-.633-1.043-.633-1.775 0-.856.317-1.576.95-2.162.638-.586 1.426-.88 2.364-.88.516 0 1.002.103 1.459.309a3.25 3.25 0 0 1 1.169.86c.217.259.372.525.466.8.1.276.158.616.175 1.02h-2.338c-.105-.527-.416-.79-.931-.79a.949.949 0 0 0-.66.245.77.77 0 0 0-.263.598c0 .305.155.527.466.668.17.07.58.208 1.23.413 1.008.31 1.72.686 2.136 1.125.422.44.633 1.037.633 1.793 0 .955-.346 1.76-1.037 2.417-.692.656-1.535.984-2.532.984a4.019 4.019 0 0 1-1.74-.386 3.367 3.367 0 0 1-1.283-1.055 3.202 3.202 0 0 1-.422-.835c-.094-.287-.16-.662-.202-1.125ZM83.357 22v-7.796H82.19v-2.18h1.168V8.702h2.391v3.322h1.441v2.18h-1.441V22h-2.39Zm5.019 0v-9.976h2.188V13c.317-.463.627-.78.932-.95.305-.17.715-.254 1.23-.254h.185v2.303c-1.43.035-2.144.82-2.144 2.355V22h-2.391Zm15.592-9.976V22h-2.189v-1.292c-.48.545-.978.938-1.494 1.178-.51.234-1.116.351-1.82.351-.96 0-1.824-.22-2.592-.659a4.747 4.747 0 0 1-1.793-1.854c-.428-.791-.641-1.682-.641-2.672 0-1.002.216-1.902.65-2.698a4.74 4.74 0 0 1 1.81-1.881c.774-.452 1.647-.677 2.62-.677.72 0 1.341.126 1.863.378.521.246.987.641 1.397 1.186v-1.336h2.189Zm-5.239 1.97c-.832 0-1.52.292-2.065.878-.539.586-.808 1.33-.808 2.233 0 .872.272 1.581.817 2.126.55.54 1.263.809 2.136.809.867 0 1.564-.275 2.091-.826.534-.55.8-1.272.8-2.162 0-.903-.278-1.638-.835-2.206-.551-.569-1.262-.853-2.135-.853Zm7.19 11.337V12.024h2.188v1.178c.791-.937 1.884-1.406 3.279-1.406.949 0 1.802.223 2.557.668a4.583 4.583 0 0 1 1.767 1.846c.428.79.642 1.681.642 2.671 0 .996-.214 1.896-.642 2.699a4.793 4.793 0 0 1-1.784 1.88c-.756.452-1.609.677-2.558.677a4.537 4.537 0 0 1-1.643-.28 4.69 4.69 0 0 1-1.415-.889v4.263h-2.391Zm5.106-11.338c-.808 0-1.488.293-2.039.88-.545.58-.817 1.306-.817 2.179 0 .85.281 1.561.844 2.136.562.568 1.257.852 2.083.852.802 0 1.476-.287 2.021-.861.551-.58.826-1.295.826-2.145 0-.879-.275-1.605-.826-2.18-.551-.574-1.248-.86-2.092-.86Z" fill="#111"/><path d="M0 26.132A3.868 3.868 0 0 0 3.868 30h22.264A3.868 3.868 0 0 0 30 26.132V3.868A3.868 3.868 0 0 0 26.132 0H3.868A3.868 3.868 0 0 0 0 3.868v22.264Z" fill="#563D7C"/><path d="M12.44 13.27V9.022h3.74c.356 0 .7.03 1.03.089.331.059.624.165.878.318.254.152.458.364.61.636.153.271.23.619.23 1.043 0 .763-.23 1.314-.687 1.653-.458.34-1.043.51-1.756.51H12.44ZM8.446 5.918v18.164h8.803c.814 0 1.607-.102 2.378-.305a6.363 6.363 0 0 0 2.06-.942 4.637 4.637 0 0 0 1.438-1.64c.356-.67.534-1.463.534-2.379 0-1.136-.275-2.107-.826-2.913-.552-.806-1.387-1.37-2.506-1.692.814-.39 1.429-.89 1.844-1.5.416-.611.623-1.374.623-2.29 0-.848-.14-1.56-.42-2.137a3.49 3.49 0 0 0-1.182-1.387c-.51-.347-1.12-.597-1.832-.75a11.31 11.31 0 0 0-2.366-.229H8.446Zm3.994 15.06v-4.986h4.35c.866 0 1.56.2 2.087.598.525.399.788 1.064.788 1.997 0 .475-.08.865-.241 1.17a1.919 1.919 0 0 1-.65.725 2.747 2.747 0 0 1-.94.382 5.34 5.34 0 0 1-1.12.114H12.44Z" fill="#fff"/></svg>
